X:1
T:Title
%%score { ( 1 3 ) | 2 }
L:1/8
M:3/4
K:F
V:1 treble nm="Grand Piano"
V:3 treble 
V:2 bass 
V:1
 z2 z2[Q:1/4=100] A2 | AF G2 E2 | F4[K:bass] [G,^CE]2 | [F,D][F,DF] [G,CE]2 [=B,D]-[F,B,D] | %4
[M:2/4][K:treble] C4 |[M:1/4] G2 |[M:3/4] AA F2 A2 | [EB][EB] [EG]2 [_EFc]2 | %8
 [EFc][CFB] [CFA]2 [B,EG]2 |[M:2/4] [A,CF]4 |] %10
V:2
 z2 z2 [F,CF]2 | [F,CF][F,A,C] [C,B,C]2 [C,G,B,]2 | [D,F,A,]4 A,,2 | B,,B,, G,,2 G,,2 | %4
[M:2/4] [C,E,]4 |[M:1/4] [C,E,C]2 |[M:3/4] [F,C][F,C] [F,A,C]2 [F,CF]2 | [C,C][C,C] [C,C]2 A,,2 | %8
 B,,B,, C,2 C,2 |[M:2/4] F,4 |] %10
V:3
 x6 | x6 | x4[K:bass] x2 | z2 z2 .G,2 |[M:2/4][K:treble] x4 |[M:1/4] x2 |[M:3/4] x6 | x6 | x6 | %9
[M:2/4] x4 |] %10

